X: 15253
T: Girl Of The House, The
R: jig
M: 6/8
K: Dmixolydian
AG|:F2D DFG|GcA GEA|~D3 AGE|~F3 FAG|
~F3 ~G3|AGA cde|dcA GEA|1 ~D3 DAG:|2 ~D3 DdB||
c2B AGF|~G3 GFG|AdB cAG|Ad^c d2e|
fed cAG|EFA GED|dcA GEA|~D3 DdB|
c2B AGF|~G3 GFG|AdB cAG|Ad^c d2a|
fed cAG|EFA GED|dcA GEA|~D3 DAG||

